client/resources/iconsets/breeze/src/svg/16x16/icon_sort_ascending.svg

<svg xmlns="http://www.w3.org/2000/svg" width="16" height="16" viewBox="0 0 16 16">
 <path style="fill:#19b5f1"
       d="m 3.5,2 c -1.3807119,0 -2.5,1.1192881 -2.5,2.5 0,1.3807119 1.1192881,2.5 2.5,2.5 C 4.0413714,7 4.567749,6.822044 5,6.5 l 0,0.00391 c 0,0.277 0.223,0.5 0.5,0.5 0.277,0 0.5,-0.223 0.5,-0.5 L 6,2.5000003 c 0,-0.277 -0.223,-0.5 -0.5,-0.5 -0.277,0 -0.5,0.223 -0.5,0.5 l 0,0 C 4.5675037,2.1766989 4.041148,2 3.5,2 Z m 0,1 c 0.8284271,0 1.5,0.6715729 1.5,1.5 0,0.8284271 -0.6715729,1.5 -1.5,1.5 -0.8284271,0 -1.5,-0.6715729 -1.5,-1.5 0,-0.8284271 0.6715729,-1.5 1.5,-1.5 z"
       />
 <path style="fill:#6d6d70"
       d="M 5.5 8.9941406 A 0.5 0.5 0 0 0 5.4257812 9 L 1.5 9 C 1.223 9 1 9.223 1 9.5 C 1 9.777 1.223 10 1.5 10 L 4.4609375 10 L 1.1152344 14.183594 A 0.5 0.5 0 0 0 1.5996094 15 L 5.5 15 C 5.777 15 6 14.777 6 14.5 C 6 14.223 5.777 14 5.5 14 L 2.5410156 14 L 5.890625 9.8125 A 0.5 0.5 0 0 0 5.9609375 9.6953125 A 0.50005 0.50005 0 0 0 5.5 9 z "
       />
 <path style="fill:#6d6d70"
       d="M 11.503906 2 C 11.226593 2 11.003906 2.223 11.003906 2.5 L 11.003906 13.294922 L 8.8574219 11.150391 A 0.5002553 0.50020191 0 1 0 8.1503906 11.857422 L 11.150391 14.853516 A 0.5 0.5 0 0 0 11.306641 14.957031 C 11.311801 14.959331 11.316966 14.960791 11.322266 14.962891 A 0.5 0.5 0 0 0 11.490234 15 L 11.5 15 A 0.5 0.5 0 0 0 11.705078 14.955078 C 11.705078 14.955078 11.707031 14.955078 11.707031 14.955078 A 0.5 0.5 0 0 0 11.857422 14.853516 L 14.857422 11.857422 A 0.50025536 0.50020185 0 0 0 14.150391 11.150391 L 12.003906 13.294922 L 12.003906 2.5 C 12.003906 2.223 11.781218 2 11.503906 2 z "
       />
</svg>

<svg xmlns="http://www.w3.org/2000/svg" width="16" height="16"><path d="M3.5 2a2.5 2.5 0 1 0 0 5c.541 0 1.068-.178 1.5-.5v.004a.5.5 0 1 0 1 0V2.5a.5.5 0 1 0-1 0h0c-.432-.323-.959-.5-1.5-.5zm0 1a1.5 1.5 0 1 1 0 3 1.5 1.5 0 1 1 0-3z" fill="#19b5f1"/><path d="M5.5 8.994A.5.5 0 0 0 5.426 9H1.5a.5.5 0 1 0 0 1h2.961l-3.346 4.184A.5.5 0 0 0 1.6 15h3.9a.5.5 0 1 0 0-1H2.541l3.35-4.187A.5.5 0 0 0 5.5 9zM11.504 2a.5.5 0 0 0-.5.5v10.795L8.857 11.15a.5.5 0 1 0-.707.707l3 2.996a.5.5 0 0 0 .34.146h.01a.5.5 0 0 0 .357-.146l3-2.996a.5.5 0 0 0-.707-.707l-2.146 2.145V2.5a.5.5 0 0 0-.5-.5z" fill="#6d6d70"/></svg>
